X:1
T:Bay of Fundy
C:Bill Guest
L:1/8
M:2/2
Z: posted by Cindy Harris 4/99
F:http://www6.bayarea.net/~otter/fiddling/tunes/fundy.txt 2004-04-22 14:55:24 UT
K:D
Q:420
fg | "D"a2 ab afdf | afbf a2 ef | "C"gfga ge=ce | geae g2 fg | "D"a2 ab afdf |
| afbf a2 ef | "G"gfeg "D"fedf | "A7"edce "D"d2 :: cB | "D"Adfd edfd | "G"Bdgd Bdgd |
| "D"Adfd Adfd | "A7"efed cBA2 | "D"Adfd edfd | "G"Bdgd Bdgd | "D"fedf "A"edce | "D"d2 f2 d2 :|
